img/i_download_w.svg

<svg width="20" height="20" viewBox="0 0 20 20" fill="none" xmlns="http://www.w3.org/2000/svg">
<path d="M6.71875 8.59461L10 11.875L13.2812 8.59461" stroke="white" stroke-width="2" stroke-linecap="round" stroke-linejoin="round"/>
<path d="M10 3.125V11.8727" stroke="white" stroke-width="2" stroke-linecap="round" stroke-linejoin="round"/>
<path d="M16.875 11.875V16.25C16.875 16.4158 16.8092 16.5747 16.6919 16.6919C16.5747 16.8092 16.4158 16.875 16.25 16.875H3.75C3.58424 16.875 3.42527 16.8092 3.30806 16.6919C3.19085 16.5747 3.125 16.4158 3.125 16.25V11.875" stroke="white" stroke-width="2" stroke-linecap="round" stroke-linejoin="round"/>
</svg>

<svg xmlns="http://www.w3.org/2000/svg" width="20" height="20" fill="none" stroke="#fff" stroke-width="2" stroke-linecap="round" stroke-linejoin="round" xmlns:v="https://vecta.io/nano"><path d="M6.719 8.595L10 11.875l3.281-3.28M10 3.125v8.748m6.875.002v4.375c0 .166-.066.325-.183.442s-.276.183-.442.183H3.75c-.166 0-.325-.066-.442-.183s-.183-.276-.183-.442v-4.375"/></svg>
